dist/img/icons/googleplay.svg

<svg width="26" height="32" viewBox="0 0 26 32" fill="none" xmlns="http://www.w3.org/2000/svg">
<path d="M16.9031 14.6466L4.46805 0.812659L20.2894 10.8896L16.9031 14.6466ZM1.22266 0C0.49019 0.425083 0 1.20023 0 2.20668V29.7933C0 30.7998 0.49019 31.5749 1.22266 32L15.6804 15.9969L1.22266 0ZM25.18 14.1028L21.8614 11.9711L18.1596 16.0031L21.8614 20.0352L25.2476 17.9035C26.2618 17.0096 26.2618 14.9967 25.18 14.1028ZM4.46805 31.1936L20.2894 21.1166L16.9031 17.3596L4.46805 31.1936Z" fill="#EBECF0"/>
</svg>

<svg width="26" height="32" fill="none" xmlns="http://www.w3.org/2000/svg"><path d="M16.903 14.647L4.468.813 20.29 10.89l-3.386 3.757zM1.223 0C.49.425 0 1.2 0 2.207v27.586C0 30.8.49 31.575 1.223 32L15.68 15.997 1.223 0zM25.18 14.103l-3.319-2.132-3.701 4.032 3.701 4.032 3.387-2.131c1.014-.894 1.014-2.907-.068-3.801zM4.468 31.193l15.821-10.076-3.386-3.757L4.468 31.194z" fill="#EBECF0"/></svg>
